src/assets/img/Premium1.svg

<svg width="116" height="116" viewBox="0 0 116 116" fill="none" xmlns="http://www.w3.org/2000/svg">
<g filter="url(#filter0_i_2187_3425)">
<path fill-rule="evenodd" clip-rule="evenodd" d="M72.0194 68.2946L76.5031 56.2341C77.0203 54.8428 78.5849 54.1227 79.9978 54.6256C80.5525 54.8231 81.0261 55.1928 81.3473 55.6789L88.1591 65.987C88.7156 66.8291 89.6681 67.336 90.6913 67.3346L102.39 67.3183C103.978 67.3161 105.262 68.5802 105.258 70.1419C105.256 70.7851 105.031 71.4093 104.621 71.9117L96.5465 81.7922C96.2204 82.1911 96.1019 82.7161 96.2258 83.2116L99.1521 94.9083C99.571 96.5828 98.5288 98.2797 96.8242 98.6984C96.1782 98.8571 95.4987 98.8127 94.8814 98.5714L84.635 94.5665C83.8938 94.2767 83.0533 94.3657 82.3888 94.8043L73.0017 101C71.6806 101.872 69.8951 101.528 69.0138 100.233C68.684 99.7479 68.5155 99.174 68.5313 98.5899L68.6818 93.046C68.7555 90.3345 70.1662 87.8225 72.4634 86.3123L82.8922 79.456C83.1707 79.273 83.2464 78.9032 83.0614 78.6301C82.918 78.4185 82.6533 78.3206 82.4028 78.3866L69.0693 81.8973C67.031 82.434 64.8609 82.1112 63.0817 81.0068L58.1371 77.9374C56.7261 77.0615 56.3089 75.2238 57.2054 73.8327C57.6223 73.1858 58.2757 72.7205 59.0301 72.5331L70.4353 69.6998C71.1668 69.5181 71.7603 68.9916 72.0194 68.2946Z" fill="url(#paint0_linear_2187_3425)" fill-opacity="0.8"/>
</g>
<defs>
<linearGradient id="paint0_linear_2187_3425" x1="100.704" y1="39.9139" x2="84.5665" y2="100.3" gradientUnits="userSpaceOnUse">
<stop stop-color="#E48FF8"/>
<stop offset="0.57" stop-color="#B077EC"/>
<stop offset="1" stop-color="#8F89F6"/>
</linearGradient>
</defs>
</svg>

<svg xmlns="http://www.w3.org/2000/svg" width="116" height="116" fill="none"><g filter="url(#filter0_i_2187_3425)"><path fill="url(#a)" fill-opacity=".8" fill-rule="evenodd" d="m72.02 68.295 4.483-12.06c.517-1.392 2.082-2.112 3.495-1.61a2.701 2.701 0 0 1 1.35 1.054l6.811 10.308a3.026 3.026 0 0 0 2.532 1.348l11.699-.017c1.588-.002 2.872 1.262 2.868 2.824a2.814 2.814 0 0 1-.637 1.77l-8.075 9.88a1.62 1.62 0 0 0-.32 1.42l2.926 11.696c.419 1.675-.623 3.372-2.328 3.79a3.226 3.226 0 0 1-1.943-.127l-10.246-4.004a2.46 2.46 0 0 0-2.246.237L73.002 101c-1.321.872-3.107.528-3.988-.767a2.787 2.787 0 0 1-.483-1.643l.15-5.544c.075-2.712 1.485-5.224 3.782-6.734l10.43-6.856a.59.59 0 0 0 .168-.826.608.608 0 0 0-.658-.243l-13.334 3.51a7.664 7.664 0 0 1-5.987-.89l-4.945-3.07a2.941 2.941 0 0 1-.932-4.104 3.041 3.041 0 0 1 1.825-1.3L70.435 69.7a2.27 2.27 0 0 0 1.584-1.405Z" clip-rule="evenodd"/></g><defs><linearGradient id="a" x1="100.704" x2="84.567" y1="39.914" y2="100.3" gradientUnits="userSpaceOnUse"><stop stop-color="#E48FF8"/><stop offset=".57" stop-color="#B077EC"/><stop offset="1" stop-color="#8F89F6"/></linearGradient></defs></svg>
